icons/svg/shape-union.svg

<svg width="24" height="24" viewBox="0 0 24 24" fill="none" xmlns="http://www.w3.org/2000/svg">
<path d="M2.74756 5.75C2.74756 4.09315 4.0907 2.75 5.74756 2.75H12.7476C14.4044 2.75 15.7476 4.09315 15.7476 5.75V12.75C15.7476 14.4069 14.4044 15.75 12.7476 15.75H5.74756C4.0907 15.75 2.74756 14.4069 2.74756 12.75V5.75Z" fill="currentColor"/>
<path d="M8.25244 11.25C8.25244 9.59315 9.59559 8.25 11.2524 8.25H18.2524C19.9093 8.25 21.2524 9.59315 21.2524 11.25V18.25C21.2524 19.9069 19.9093 21.25 18.2524 21.25H11.2524C9.59559 21.25 8.25244 19.9069 8.25244 18.25V11.25Z" fill="currentColor"/>
<path d="M2.74756 5.75C2.74756 4.09315 4.0907 2.75 5.74756 2.75H12.7476C14.4044 2.75 15.7476 4.09315 15.7476 5.75V12.75C15.7476 14.4069 14.4044 15.75 12.7476 15.75H5.74756C4.0907 15.75 2.74756 14.4069 2.74756 12.75V5.75Z" stroke="currentColor" stroke-width="1.5" stroke-linecap="round" stroke-linejoin="round"/>
<path d="M8.25244 11.25C8.25244 9.59315 9.59559 8.25 11.2524 8.25H18.2524C19.9093 8.25 21.2524 9.59315 21.2524 11.25V18.25C21.2524 19.9069 19.9093 21.25 18.2524 21.25H11.2524C9.59559 21.25 8.25244 19.9069 8.25244 18.25V11.25Z" stroke="currentColor" stroke-width="1.5" stroke-linecap="round" stroke-linejoin="round"/>
</svg>

<svg xmlns="http://www.w3.org/2000/svg" width="24" height="24" fill="none" viewBox="0 0 24 24"><path fill="currentColor" d="M2.748 5.75a3 3 0 0 1 3-3h7a3 3 0 0 1 3 3v7a3 3 0 0 1-3 3h-7a3 3 0 0 1-3-3z"/><path fill="currentColor" d="M8.252 11.25a3 3 0 0 1 3-3h7a3 3 0 0 1 3 3v7a3 3 0 0 1-3 3h-7a3 3 0 0 1-3-3z"/><path stroke="currentColor" stroke-linecap="round" stroke-linejoin="round" stroke-width="1.5" d="M2.748 5.75a3 3 0 0 1 3-3h7a3 3 0 0 1 3 3v7a3 3 0 0 1-3 3h-7a3 3 0 0 1-3-3z"/><path stroke="currentColor" stroke-linecap="round" stroke-linejoin="round" stroke-width="1.5" d="M8.252 11.25a3 3 0 0 1 3-3h7a3 3 0 0 1 3 3v7a3 3 0 0 1-3 3h-7a3 3 0 0 1-3-3z"/></svg>
